svgs/thin/table-pivot.svg

<svg xmlns="http://www.w3.org/2000/svg" viewBox="0 0 512 512"><!--! Font Awesome Pro 6.5.1 by @fontawesome - https://fontawesome.com License - https://fontawesome.com/license (Commercial License) Copyright 2023 Fonticons, Inc. --><path d="M64 48C37.5 48 16 69.5 16 96v64H128V48H64zM16 176V416c0 26.5 21.5 48 48 48h64V176H16zm128 0V464H448c26.5 0 48-21.5 48-48V176H144zm352-16V96c0-26.5-21.5-48-48-48H144V160H496zM0 96C0 60.7 28.7 32 64 32H448c35.3 0 64 28.7 64 64V416c0 35.3-28.7 64-64 64H64c-35.3 0-64-28.7-64-64V96zM445.7 285.7c-3.1 3.1-8.2 3.1-11.3 0L408 259.3V336c0 22.1-17.9 40-40 40H291.3l26.3 26.3c3.1 3.1 3.1 8.2 0 11.3s-8.2 3.1-11.3 0l-40-40c-3.1-3.1-3.1-8.2 0-11.3l40-40c3.1-3.1 8.2-3.1 11.3 0s3.1 8.2 0 11.3L291.3 360H368c13.3 0 24-10.7 24-24V259.3l-26.3 26.3c-3.1 3.1-8.2 3.1-11.3 0s-3.1-8.2 0-11.3l40-40c3.1-3.1 8.2-3.1 11.3 0l40 40c3.1 3.1 3.1 8.2 0 11.3z"/></svg>

<svg xmlns="http://www.w3.org/2000/svg" viewBox="0 0 512 512"><!--! Font Awesome Pro 6.1.1 by @fontawesome - https://fontawesome.com License - https://fontawesome.com/license (Commercial License) Copyright 2022 Fonticons, Inc. --><path d="M445.7 285.7C442.5 288.8 437.5 288.8 434.3 285.7L408 259.3V336C408 358.1 390.1 376 368 376H291.3L317.7 402.3C320.8 405.5 320.8 410.5 317.7 413.7C314.5 416.8 309.5 416.8 306.3 413.7L266.3 373.7C263.2 370.5 263.2 365.5 266.3 362.3L306.3 322.3C309.5 319.2 314.5 319.2 317.7 322.3C320.8 325.5 320.8 330.5 317.7 333.7L291.3 360H368C381.3 360 392 349.3 392 336V259.3L365.7 285.7C362.5 288.8 357.5 288.8 354.3 285.7C351.2 282.5 351.2 277.5 354.3 274.3L394.3 234.3C397.5 231.2 402.5 231.2 405.7 234.3L445.7 274.3C448.8 277.5 448.8 282.5 445.7 285.7L445.7 285.7zM0 96C0 60.65 28.65 32 64 32H448C483.3 32 512 60.65 512 96V416C512 451.3 483.3 480 448 480H64C28.65 480 0 451.3 0 416V96zM16 96V160H128V48H64C37.49 48 16 69.49 16 96zM16 176V416C16 442.5 37.49 464 64 464H128V176H16zM144 176V464H448C474.5 464 496 442.5 496 416V176H144zM496 160V96C496 69.49 474.5 48 448 48H144V160H496z"/></svg>
